X:1
T:The Black Cook
M:6/8
L:1/8
K:D
 AA| dDD FED| ABA AFD| GBG FAF| EFG A2 A| dDD FED| ABA AFD| GBG FAF|\
 EDC D2 A| Add dcd| dcd ecA| Aee ede| ede f2 d| dfe dcB| AdA FED| GBGF-A F|\
 EDC D2||
